X: 21092
T: Coupar Angus Jigg
C: Charles Duff
R: jig
B: RSCDS 21-9(II)
Z: 1997 by John Chambers <jc:trillian.mit.edu>
M: 6/8
L: 1/8
%--------------------
K: C
E \
| "C"CEG GEG | "F"AFA ABc | "C"CEG GEC | "G7"DB,G, G,2E \
| "C"CEG GEG | "F"AFA ABc | "G7"B>AB GcB | "C"cCC C2 :|
|| f \
| "C"e/f/gg gec | "F"f/g/aa abc' | "C"e/f/gg gec | "G7"dBG G2f \
| "C"e/f/gg gec | "F"f/g/aa abc' | "G7"g>fg gag | "C"c'cc c2 ||
|| f \
| "C"e/f/gg gec | "F"f/g/aa abc' | "C"e/f/gg gec | "G7"dBG G2f \
|  "Em"geg "Dm"fdf | "C"ece "G"dBd | "Am"cBA "C"GEc | "G7"GEC "C"C2 |]
%%center Book21/21092-Coupar_Angus_Jigg.abc

%%sep 1 1 500
%%sep 1 1 500

